X: 37461
T: Sliabh Russell
R: jig
M: 6/8
K: Adorian
|:eAA Bcd|eaf g2d|edB cBA|BAG Bcd|
eAA Bcd|eaf g2d|edB cBA|1 BAG A (3Bcd:|2 BAG A2d||
|:eaa efg|agf g2d|eaa efg|fed ~g3|
eaa efg|agf g2d|edB cBA|BAG A (3Bcd:|

